!!!!SEGMENT: pl-wnifc--13846--068_anonim--piesni-polskie-i-ruskie-ludu-galicyjskiego-68-kazala-solocha-pryjdy-szczos-dam.krn
!!!kernsource:
!!!cenid: 18xx:3290
!!!COM: Anonim
!!!COM-rismid: pe30004985
!!!CDT:
!!!CNT:
!!!GTL: Pieśni polskie i ruskie ludu galicyjskiego
!!!OTL: 68. Kazała Sołocha pryjdy szczoś dam
!!!PDT: 1833
!!!AGN:
!!!SMS-siglum: PL-Wnifc
!!!SMS-shelfmark: 13846
!!!SMS-shelfwork: 068 G
!!!NIFC-rismid: 1001037180
!!!URL-scan: http://repozytorium.nifc.pl/skany/pl-wnifc-nut--13846
!!!ONB-nifc:
!!!key: g
!!!OMD: L'isteſso Tempo
**kern	**kern	**dynam	**kern	**text
*part2	*part2	*part2	*part1	*part1
*staff3	*staff2	*	*staff1	*staff1
*I"FORTEPIAN.	*I"FORTEPIAN.	*	*I"GŁOS.	*
*Ipiano	*Ipiano	*	*Ivox	*
*ICklav	*ICklav	*	*ICvox	*
*IGacmp	*IGacmp	*	*IGsolo	*
*clefF4	*clefG2	*	*clefG2	*
*k[b-e-]	*k[b-e-]	*	*k[b-e-]	*
*g:	*g:	*	*g:	*
*M3/4	*M3/4	*	*M3/4	*
=1-	=1-	=1-	=1-	=1-
*	*	*^	*	*
*	*tremolo	*	*	*	*
!	!	!LO:DY:b=2:rj	!	!LO:TX:a:t=E.2.	!
2.BB-/ 2.BBB-/	(8d/ 8B-/L	p	p	4f/	Ka-
.	8F/	.	.	.	.
.	8d/ 8B-/	.	.	4b-/	-za-
.	8F/	.	.	.	.
.	8d/ 8B-/	.	.	4dd\	-ła
.	8F/J)	.	.	.	.
*	*	*v	*v	*	*
=2	=2	=2	=2	=2
2.BB-/ 2.BBB-/	(8d/ 8B-/L	.	4f/	So-
.	8F/	.	.	.
.	8d/ 8B-/	.	4b-\	-ło-
.	8F/	.	.	.
.	8d/ 8B-/	.	4dd\	-cha
.	8F/J)	.	.	.
=3	=3	=3	=3	=3
*^	*	*	*	*
(<4AA/	2.AAA\	(8f/ 8c/L	.	4ff\	pryj-
.	.	8F/	.	.	.
(<4FF/)	.	8f/ 8c/	.	(4.ff\	-dy
.	.	8F/	.	.	.
4AA/)	.	8f/ 8c/	.	.	.
.	.	8F/J)	.	8ee-\)	.
=4	=4	=4	=4	=4	=4
(<4BB-/	2.BBB-\	(8f/ 8d/L	.	(8ee-\L	szczoś
.	.	8F/	.	8dd\J)	.
(<4FF/)	.	8f/ 8d/	.	2dd\	dam
.	.	8F/	.	.	.
4BB-/)	.	8f/ 8d/	.	.	.
.	.	8F/J)	.	.	.
*v	*v	*	*	*	*
!!LO:LB:g=original
=5	=5	=5	=5	=5
2.BB-/ 2.BBB-/	(8d/ 8B-/L	.	4f/	ka-
.	8F/	.	.	.
.	8d/ 8B-/	.	4b-\	-za-
.	8F/	.	.	.
.	8d/ 8B-/	.	4dd\	-ła
.	8F/J)	.	.	.
=6	=6	=6	=6	=6
2.BB-/ 2.BBB-/	(8d/ 8B-/L	.	4f/	ne-
.	8F/	.	.	.
.	8d/ 8B-/	.	4b-\	-bo-
.	8F/	.	.	.
.	8d/ 8B-/	.	4dd\	-ha
.	8F/J)	.	.	.
=7	=7	=7	=7	=7
*^	*	*	*	*
4AA/	2.AAA\	(8f/ 8c/L	.	4ff\	pryj-
.	.	8F/	.	.	.
4FF/	.	8f/ 8c/	.	4.ff\	-dy
.	.	8F/	.	.	.
4AA/	.	8f/ 8c/	.	.	.
.	.	8F/J)	.	8ee-\	.
*v	*v	*	*	*	*
=8	=8	=8	=8	=8
4BBB-/	8f/ 8d/L	.	(8ee-\L	szczoś
.	8F/	.	8dd\J)	.
4FF/	8f/ 8d/	.	2dd\	dam,
.	8F/J	.	.	.
*	*Xtremolo	*	*	*
4BB-/	(8f/ 8d/L	.	.	.
.	8B-/J)	.	.	.
!!LO:LB:g=original
=9	=9	=9	=9	=9
4GG/	8r	.	(8gg\L	szczoś
.	8g/ 8d/ 8B-/	.	8dd\J)	.
4BB-/	8r	.	4.dd\	.
.	8g/ 8d/ 8B-/	.	.	.
4D/	8r	.	.	.
.	8g/ 8d/ 8B-/	.	8cc\	dam
=10	=10	=10	=10	=10
4GG/	8r	.	8b-/L	szczoś
.	8g/ 8d/ 8B-/	.	8a/J	.
4BB-/	8r	.	2g/	dam
.	8g/ 8d/ 8B-/	.	.	.
4D/	8r	.	.	.
.	8g/ 8d/ 8B-/	.	.	.
=11	=11	=11	=11	=11
4DD/	8r	.	(8a/L	pryj-
.	8f#X/ 8d/ 8c/ 8A/	.	8dd/J)	.
4D\	8r	.	4.dd\	.
.	8f#/ 8d/ 8c/ 8A/	.	.	.
4D\	8r	.	.	.
.	8f#/ 8d/ 8c/ 8A/	.	8d/	-dy
!!LO:LB:g=original
=12	=12	=12	=12	=12
4GG/	8r	.	(8g/L	szczoś
.	8g/ 8d/ 8B-/	.	8a/J)	.
4DD/	8r	.	2dd\	dam
.	8g/ 8d/ 8B-/	.	.	.
4BBB-/	8r	.	.	.
.	8g/ 8d/ 8B-/	.	.	.
=13	=13	=13	=13	=13
4GGG/	8r	.	(8gg\L	szczoś
.	8g/ 8d/ 8B-/	.	8dd\J)	.
4BBB-/	8r	.	4.dd\	.
.	8g/ 8d/ 8B-/	.	.	.
4DD/	8r	.	.	.
.	8g/ 8d/ 8B-/	.	8cc\	dam
=14	=14	=14	=14	=14
4GGG/	8r	.	(8b-/L	szczoś
.	8g/ 8d/ 8B-/	.	8a/J)	.
4BBB-/	8r	.	2g/	dam
.	8g/ 8d/ 8B-/	.	.	.
4DD/	8r	.	.	.
.	8g/ 8d/ 8B-/	.	.	.
!!LO:PB:g=original
=15	=15	=15	=15	=15
4D\	8r	.	(8a\L	pryj-
.	8a/ 8f#X/ 8d/ 8c/	.	8dd\J)	.
4DD/	8r	.	4.dd\	-dy
.	8a/ 8f#/ 8d/ 8c/	.	.	.
4D\	8r	.	.	.
.	8a/ 8f#/ 8d/ 8c/	.	8f#X/	.
=16	=16	=16	=16	=16
4GG/	8r	.	(8g/L	szczoś
.	8d/ 8B-/	.	8f#X/J)	.
4D\	8r	.	2g/	dam.
.	8d/ 8B-/	.	.	.
4G\	8r	.	.	.
.	8d/ 8B-/	.	.	.
==	==	==	==	==
*-	*-	*-	*-	*-
!!!system-decoration: s1{(s2,s3)}
!!!RDF**kern: < = below
!!!ENC: Marta Lawrence
!!!END: 2021-11-10
